;FLAVOR:Marlin
;TIME:8775
;Filament used: 6.53188m
;Layer height: 0.15
;MINX:100.606
;MINY:83.984
;MINZ:0.2
;MAXX:169.561
;MAXY:134.349
;MAXZ:52.7
;Generated with Cura_SteamEngine 4.3.0
M82 ;absolute extrusion mode
G21 ; set units to millimeters
G90 ; use absolute positioning
M82 ; absolute extrusion mode
M104 S215.0 ; set extruder temp
M140 S60.0 ; set bed temp
M190 S60.0 ; wait for bed temp
M109 S215.0 ; wait for extruder temp
G28 W ; home all without mesh bed level
G80 ; mesh bed leveling
G92 E0.0 ; reset extruder distance position
G1 Y-3.0 F1000.0 ; go outside print area
G1 X60.0 E9.0 F1000.0 ; intro line
G1 X100.0 E21.5 F1000.0 ; intro line
G92 E0.0 ; reset extruder distance position
G92 E0
G92 E0
G1 F2100 E-0.8
;LAYER_COUNT:351
;LAYER:0
M107
G0 F3600 X102.26 Y101.476 Z0.2
;TYPE:SKIRT
G1 F2100 E0
G1 F1800 X102.48 Y101.266 E0.01012
G1 X103.306 Y100.543 E0.04663
G1 X103.347 Y100.508 E0.04842
G1 X103.675 Y100.229 E0.06274
G1 X105.715 Y98.394 E0.154
G1 X107.672 Y96.531 E0.24387
G1 X109.607 Y94.581 E0.33524
G1 X111.453 Y92.611 E0.42503
G1 X113.271 Y90.559 E0.51622
G1 X115.151 Y88.308 E0.61376
G1 X115.501 Y87.875 E0.63228
G1 X115.868 Y87.484 E0.65012
G1 X116.289 Y87.152 E0.66795
G1 X116.597 Y86.966 E0.67992
G1 X116.757 Y86.88 E0.68596
G1 X117.363 Y86.623 E0.70785
G1 X118.584 Y86.232 E0.75049
G1 X118.706 Y86.195 E0.75473
G1 X119.37 Y86.008 E0.77768
G1 X121.215 Y85.487 E0.84144
G1 X121.291 Y85.466 E0.84406
G1 X121.673 Y85.367 E0.85719
G1 X121.779 Y85.341 E0.86082
G1 X123.088 Y85.044 E0.90546
G1 X123.162 Y85.028 E0.90798
G1 X123.611 Y84.936 E0.92323
G1 X126.711 Y84.248 E1.02884
G1 X127.103 Y84.154 E1.04225
G1 X127.278 Y84.117 E1.0482
G1 X127.667 Y84.044 E1.06136
G1 X128.2 Y83.984 E1.0792
G1 X128.736 Y84.005 E1.09704
G1 X129.054 Y84.055 E1.10775
G1 X129.571 Y84.161 E1.1253
G1 X129.662 Y84.181 E1.1284
G1 X130.528 Y84.382 E1.15797
G1 X133.708 Y85.085 E1.26629
G1 X133.738 Y85.092 E1.26732
G1 X135.09 Y85.403 E1.31346
G1 X135.447 Y85.504 E1.3258
G1 X135.883 Y85.653 E1.34112
G1 X136.376 Y85.864 E1.35896
G1 X136.772 Y86.103 E1.37434
G1 X137.748 Y86.781 E1.41387
G1 X140.033 Y88.328 E1.50565
G1 X142.363 Y89.809 E1.59747
G1 X144.685 Y91.195 E1.68742
G1 X147.071 Y92.529 E1.77834
G1 X149.483 Y93.791 E1.86888
G1 X151.942 Y94.989 E1.95985
G1 X154.406 Y96.105 E2.04982
G1 X156.961 Y97.176 E2.14196
G1 X159.468 Y98.143 E2.23133
G1 X159.768 Y98.249 E2.24192
G1 X159.819 Y98.268 E2.24373
G1 X160.924 Y98.678 E2.28293
G1 X161.114 Y98.754 E2.28973
G1 X162.217 Y99.236 E2.32977
G1 X162.256 Y99.254 E2.3312
G1 X162.93 Y99.558 E2.35579
G1 X164.836 Y100.352 E2.42447
G1 X164.877 Y100.369 E2.42594
G1 X165.276 Y100.541 E2.44039
G1 X165.751 Y100.789 E2.45822
G1 X166.185 Y101.106 E2.47609
G1 X166.566 Y101.483 E2.49392
G1 X166.887 Y101.912 E2.51174
G1 X167.114 Y102.327 E2.52747
G1 X167.49 Y103.134 E2.55708
G1 X167.524 Y103.209 E2.55982
G1 X167.871 Y104.001 E2.58858
G1 X168.582 Y105.481 E2.64319
G1 X168.606 Y105.532 E2.64507
G1 X169.187 Y106.791 E2.69118
G1 X169.439 Y107.55 E2.71778
G1 X169.489 Y107.785 E2.72578
G1 X169.561 Y108.316 E2.7436
G1 X169.538 Y108.998 E2.76629
G1 X169.502 Y109.275 E2.77559
G1 X169.393 Y109.8 E2.79342
G1 X169.286 Y110.118 E2.80458
G1 X168.938 Y111.011 E2.83646
G1 X168.901 Y111.102 E2.83972
G1 X168.575 Y111.875 E2.86763
G1 X168.341 Y112.451 E2.8883
G1 X168.275 Y112.603 E2.89382
G1 X167.804 Y113.625 E2.93124
G1 X167.781 Y113.674 E2.93304
G1 X167.2 Y114.886 E2.97775
G1 X166.933 Y115.351 E2.99558
G1 X166.6 Y115.771 E3.01341
G1 X166.322 Y116.041 E3.0263
G1 X165.911 Y116.4 E3.04445
G1 X165.482 Y116.722 E3.06229
G1 X164.83 Y117.051 E3.08658
G1 X163.79 Y117.449 E3.12362
G1 X163.744 Y117.466 E3.12525
G1 X162.765 Y117.825 E3.15993
G1 X161.923 Y118.15 E3.18995
G1 X161.716 Y118.223 E3.19725
G1 X158.689 Y119.181 E3.30285
G1 X156.093 Y120.073 E3.39415
G1 X153.55 Y121.026 E3.48447
G1 X151.013 Y122.059 E3.57558
G1 X148.519 Y123.16 E3.66625
G1 X146.089 Y124.315 E3.75574
G1 X143.64 Y125.564 E3.84718
G1 X140.087 Y127.537 E3.98235
G1 X139.163 Y128.076 E4.01793
G1 X138.593 Y128.344 E4.03888
G1 X135.999 Y129.299 E4.13081
G1 X134.142 Y130.017 E4.19703
G1 X133.265 Y130.366 E4.22843
G1 X133.168 Y130.403 E4.23188
G1 X132.351 Y130.701 E4.26081
G1 X132.291 Y130.722 E4.26292
G1 X131.894 Y130.859 E4.27689
G1 X131.851 Y130.874 E4.2784
G1 X131.189 Y131.093 E4.30159
G1 X130.668 Y131.223 E4.31945
G1 X130.135 Y131.274 E4.33726
G1 X129.599 Y131.246 E4.35512
G1 X129.275 Y131.189 E4.36606
G1 X128.526 Y131.022 E4.39158
G1 X128.434 Y131 E4.39473
G1 X127.592 Y130.789 E4.4236
G1 X127.485 Y130.76 E4.42728
G1 X126.808 Y130.568 E4.45069
G1 X126.76 Y130.554 E4.45235
G1 X125.43 Y130.157 E4.49852
G1 X123.655 Y129.673 E4.55971
G1 X123.655 Y129.674 E4.55974
G1 X123.086 Y129.525 E4.57931
G1 X122.933 Y129.481 E4.5846
G1 X120.589 Y128.755 E4.66622
G1 X120.364 Y128.677 E4.67414
G1 X119.861 Y128.484 E4.69206
G1 X117.29 Y127.53 E4.78327
G1 X114.734 Y126.663 E4.87304
G1 X112.094 Y125.851 E4.9649
G1 X109.48 Y125.126 E5.05513
G1 X106.846 Y124.476 E5.14536
G1 X105.219 Y124.131 E5.20068
G1 X105.184 Y124.123 E5.20187
G1 X103.848 Y123.826 E5.24739
G1 X103.334 Y123.671 E5.26525
G1 X102.85 Y123.442 E5.28306
G1 X102.541 Y123.244 E5.29526
G1 X102.204 Y123.004 E5.30903
G1 X101.791 Y122.662 E5.32686
G1 X101.434 Y122.261 E5.34472
G1 X101.141 Y121.813 E5.36252
G1 X100.863 Y121.169 E5.38585
G1 X100.791 Y120.944 E5.39371
G1 X100.666 Y120.423 E5.41153
G1 X100.626 Y120.047 E5.42411
G1 X100.614 Y119.831 E5.4313
G1 X100.608 Y119.645 E5.43749
G1 X100.606 Y119.144 E5.45415
G1 X100.627 Y118.738 E5.46768
G1 X100.666 Y118.382 E5.47959
G1 X100.925 Y115.66 E5.57053
G1 X101.106 Y112.939 E5.66123
G1 X101.21 Y110.24 E5.75107
G1 X101.238 Y107.476 E5.843
G1 X101.178 Y104.186 E5.95245
G1 X101.208 Y103.651 E5.97027
G1 X101.317 Y103.126 E5.9881
G1 X101.566 Y102.493 E6.01073
G1 X101.64 Y102.347 E6.01617
G1 X101.917 Y101.888 E6.034
G1 X102.26 Y101.476 E6.05183
G0 F3600 X102.743 Y101.567
G1 F1800 X103.569 Y100.844 E6.08834
G1 X103.606 Y100.813 E6.08995
G1 X103.936 Y100.533 E6.10434
G1 X105.977 Y98.697 E6.19565
G1 X107.948 Y96.82 E6.28618
G1 X109.881 Y94.871 E6.37748
G1 X111.763 Y92.864 E6.46899
G1 X113.578 Y90.814 E6.56005
G1 X115.458 Y88.564 E6.65757
G1 X115.812 Y88.126 E6.6763
G1 X116.16 Y87.759 E6.69313
G1 X116.561 Y87.451 E6.70994
G1 X116.786 Y87.318 E6.71864
G1 X116.946 Y87.232 E6.72468
G1 X117.485 Y87.003 E6.74416
G1 X118.706 Y86.612 E6.7868
G1 X118.815 Y86.58 E6.79058
G1 X119.476 Y86.394 E6.81342
G1 X119.476 Y86.393 E6.81345
G1 X121.324 Y85.871 E6.87732
G1 X121.391 Y85.853 E6.87963
G1 X121.773 Y85.754 E6.89275
G1 X121.868 Y85.731 E6.896
G1 X123.177 Y85.434 E6.94065
G1 X123.243 Y85.42 E6.94289
G1 X123.66 Y85.335 E6.95705
G1 X126.83 Y84.631 E7.06505
G1 X127.196 Y84.543 E7.07757
G1 X127.352 Y84.51 E7.08287
G1 X127.741 Y84.437 E7.09604
G1 X128.243 Y84.383 E7.11283
G1 X128.974 Y84.447 E7.13724
G1 X129.491 Y84.553 E7.15479
G1 X129.571 Y84.571 E7.15752
G1 X130.405 Y84.765 E7.186
G1 X130.405 Y84.764 E7.18603
G1 X133.622 Y85.475 E7.29561
G1 X133.648 Y85.481 E7.2965
G1 X135 Y85.792 E7.34264
G1 X135.318 Y85.883 E7.35364
G1 X135.754 Y86.032 E7.36896
G1 X136.218 Y86.233 E7.38578
G1 X136.544 Y86.432 E7.39849
G1 X137.524 Y87.112 E7.43816
G1 X139.841 Y88.68 E7.53121
G1 X142.123 Y90.131 E7.62115
G1 X144.491 Y91.544 E7.71287
G1 X146.884 Y92.883 E7.80407
G1 X149.287 Y94.139 E7.89426
G1 X151.781 Y95.355 E7.98654
G1 X154.253 Y96.474 E8.07679
G1 X156.811 Y97.547 E8.16905
G1 X159.328 Y98.517 E8.25877
G1 X159.635 Y98.626 E8.26961
G1 X159.68 Y98.643 E8.27121
G1 X160.785 Y99.053 E8.31041
G1 X160.953 Y99.121 E8.31644
G1 X162.056 Y99.603 E8.35647
G1 X162.092 Y99.618 E8.35777
G1 X162.79 Y99.933 E8.38324
G1 X164.682 Y100.721 E8.45141
G1 X164.719 Y100.736 E8.45274
G1 X165.118 Y100.908 E8.46719
G1 X165.565 Y101.145 E8.48401
G1 X165.969 Y101.448 E8.50081
G1 X166.32 Y101.812 E8.51763
G1 X166.61 Y102.226 E8.53444
G1 X166.752 Y102.496 E8.54459
G1 X167.128 Y103.303 E8.5742
G1 X167.158 Y103.37 E8.57664
G1 X167.513 Y104.181 E8.60609
G1 X168.221 Y105.654 E8.66044
G1 X168.243 Y105.699 E8.66211
G1 X168.824 Y106.958 E8.70823
G1 X169.048 Y107.633 E8.73188
G1 X169.098 Y107.868 E8.73987
G1 X169.164 Y108.369 E8.75668
G1 X169.141 Y108.946 E8.77589
G1 X169.105 Y109.223 E8.78518
G1 X169.001 Y109.718 E8.802
G1 X168.914 Y109.973 E8.81096
G1 X168.566 Y110.866 E8.84284
G1 X168.533 Y110.947 E8.84575
G1 X168.189 Y111.763 E8.8752
G1 X167.971 Y112.3 E8.89448
G1 X167.912 Y112.435 E8.89938
G1 X167.441 Y113.457 E8.93681
G1 X167.421 Y113.501 E8.93841
G1 X166.84 Y114.713 E8.98312
G1 X166.586 Y115.15 E8.99993
G1 X166.266 Y115.542 E9.01676
G1 X166.059 Y115.74 E9.02629
G1 X165.648 Y116.099 E9.04444
G1 X165.242 Y116.401 E9.06127
G1 X164.687 Y116.678 E9.0819
G1 X163.647 Y117.076 E9.11893
G1 X163.606 Y117.091 E9.12039
G1 X162.631 Y117.449 E9.15493
G1 X161.78 Y117.777 E9.18527
G1 X161.595 Y117.842 E9.19179
G1 X158.565 Y118.801 E9.29749
G1 X155.971 Y119.692 E9.38872
G1 X153.395 Y120.657 E9.48021
G1 X150.837 Y121.699 E9.57208
G1 X148.378 Y122.784 E9.66147
G1 X145.9 Y123.962 E9.75273
G1 X143.465 Y125.204 E9.84364
G1 X139.839 Y127.218 E9.9816
G1 X138.961 Y127.73 E10.01541
G1 X138.455 Y127.969 E10.03402
G1 X135.837 Y128.933 E10.12681
G1 X133.998 Y129.644 E10.19239
G1 X133.117 Y129.994 E10.22392
G1 X133.031 Y130.027 E10.22698
G1 X132.214 Y130.325 E10.2559
G1 X132.161 Y130.344 E10.25778
G1 X131.764 Y130.481 E10.27175
G1 X131.725 Y130.494 E10.27311
G1 X131.063 Y130.713 E10.2963
G1 X130.572 Y130.833 E10.31312
G1 X130.068 Y130.875 E10.32994
G1 X129.362 Y130.798 E10.35356
G1 X128.613 Y130.631 E10.37908
G1 X128.531 Y130.612 E10.38188
G1 X127.689 Y130.401 E10.41075
G1 X127.594 Y130.376 E10.41402
G1 X126.917 Y130.184 E10.43742
G1 X126.874 Y130.171 E10.43892
G1 X125.523 Y129.767 E10.48582
G1 X123.756 Y129.286 E10.54673
G1 X123.756 Y129.287 E10.54676
G1 X123.187 Y129.138 E10.56632
G1 X123.051 Y129.099 E10.57103
G1 X120.707 Y128.373 E10.65265
G1 X120.508 Y128.304 E10.65965
G1 X120.005 Y128.111 E10.67757
G1 X117.454 Y127.164 E10.76807
G1 X114.8 Y126.264 E10.86128
G1 X112.247 Y125.479 E10.95012
G1 X109.578 Y124.739 E11.04224
G1 X106.935 Y124.086 E11.13279
G1 X105.302 Y123.74 E11.18831
G1 X105.271 Y123.733 E11.18937
G1 X103.935 Y123.436 E11.23489
G1 X103.451 Y123.287 E11.25173
G1 X102.997 Y123.065 E11.26854
G1 X102.773 Y122.919 E11.27743
G1 X102.436 Y122.679 E11.29119
G1 X102.048 Y122.354 E11.30803
G1 X101.717 Y121.972 E11.32484
G1 X101.45 Y121.543 E11.34165
G1 X101.244 Y121.047 E11.35951
G1 X101.172 Y120.822 E11.36737
G1 X101.057 Y120.33 E11.38417
G1 X101.025 Y120.025 E11.39437
G1 X101.013 Y119.809 E11.40157
G1 X101.008 Y119.644 E11.40706
G1 X101.006 Y119.143 E11.42372
G1 X101.025 Y118.782 E11.43574
G1 X101.059 Y118.471 E11.44615
G1 X101.324 Y115.691 E11.53903
G1 X101.504 Y112.979 E11.62943
G1 X101.611 Y110.225 E11.7211
G1 X101.638 Y107.473 E11.81264
G1 X101.578 Y104.179 E11.92221
G1 X101.608 Y103.674 E11.93904
G1 X101.718 Y103.181 E11.95584
G1 X101.923 Y102.674 E11.97403
G1 X101.997 Y102.528 E11.97947
G1 X102.26 Y102.097 E11.99627
G1 X102.743 Y101.567 E12.02012
G0 F3600 X104.983 Y104.123
;TYPE:SUPPORT
G1 F1800 X105.125 Y104.037 E12.02564
G1 X108.797 Y103.307 E12.15016
G1 X110.396 Y104.411 E12.21479
G1 X110.965 Y104.207 E12.23489
G1 X111.21 Y103.35 E12.26454
G1 X113.77 Y105.071 E12.36713
G1 X114.335 Y104.876 E12.38701
G1 X116.717 Y97.622 E12.64096
G1 X116.691 Y97.192 E12.65529
G1 X118.257 Y90.569 E12.88164
G1 X118.398 Y90.314 E12.89133
G1 X118.431 Y90.277 E12.89298
G1 X118.455 Y90.259 E12.89398
G1 X118.699 Y90.142 E12.90298
G1 X121.32 Y89.401 E12.99357
G1 X122.93 Y88.955 E13.04914
G1 X125.525 Y88.424 E13.13724
G1 X127.534 Y88.093 E13.20496
G1 X127.867 Y87.87 E13.21829
G1 X128.363 Y87.77 E13.23511
G1 X128.708 Y87.84 E13.24682
G1 X129.074 Y87.964 E13.25968
G1 X130.555 Y88.268 E13.30996
G1 X130.922 Y88.409 E13.32304
G1 X134.229 Y89.093 E13.43536
G1 X134.431 Y89.191 E13.44282
G1 X134.643 Y89.24 E13.45006
G1 X135.924 Y90.352 E13.50648
G1 X136.287 Y90.54 E13.52008
G1 X136.847 Y91.024 E13.5447
G1 X137.212 Y91.216 E13.55841
G1 X137.787 Y91.714 E13.58371
G1 X138.15 Y91.902 E13.59731
G1 X138.732 Y92.405 E13.6229
G1 X139.071 Y92.58 E13.63558
G1 X139.647 Y93.084 E13.66104
G1 X140.015 Y93.272 E13.67479
G1 X140.626 Y93.802 E13.70169
G1 X140.89 Y94.112 E13.71523
G1 X141.08 Y94.567 E13.73163
G1 X141.121 Y94.979 E13.7454
G1 X141.18 Y95.112 E13.75024
G1 X141.227 Y95.496 E13.76311
G1 X141.293 Y95.648 E13.76862
G1 X141.341 Y96.03 E13.78142
G1 X141.393 Y96.164 E13.7862
G1 X141.441 Y96.589 E13.80043
G1 X141.499 Y96.723 E13.80529
G1 X141.547 Y97.132 E13.81898
G1 X141.602 Y97.264 E13.82374
G1 X141.65 Y97.648 E13.83661
G1 X141.707 Y97.789 E13.84167
G1 X141.756 Y98.18 E13.85478
G1 X141.812 Y98.311 E13.85951
G1 X141.857 Y98.718 E13.87313
G1 X141.918 Y98.864 E13.8784
G1 X141.966 Y99.249 E13.8913
G1 X142.02 Y99.381 E13.89604
G1 X142.068 Y99.805 E13.91024
G1 X142.125 Y99.941 E13.91514
G1 X142.171 Y100.314 E13.92764
G1 X142.773 Y101.768 E13.97998
G1 X143.565 Y104.913 E14.08785
G1 X144.032 Y105.215 E14.10635
G1 X147.284 Y104.63 E14.21625
G1 X147.575 Y104.361 E14.22943
G1 X148.237 Y104.189 E14.25218
G1 X149.772 Y105.058 E14.31084
G1 X149.966 Y105.608 E14.33024
G1 X151.554 Y107.332 E14.4082
G1 X152.112 Y107.367 E14.4268
G1 X155.909 Y104.171 E14.59187
G1 X156.209 Y103.895 E14.60543
G1 X156.66 Y103.525 E14.62483
G1 X158.521 Y102.851 E14.69066
G1 X159.297 Y102.264 E14.72302
G1 X159.475 Y102.276 E14.72896
G1 X159.65 Y102.253 E14.73483
G1 X159.934 Y102.391 E14.74533
G1 X160.196 Y102.738 E14.75979
G1 X160.981 Y103.017 E14.7875
G1 X161.194 Y103.363 E14.80101
G1 X163.712 Y104.012 E14.8875
G1 X163.934 Y104.728 E14.91243
G1 X165.1 Y107.187 E15.00295
G1 X165.249 Y107.662 E15.01951
G1 X165.753 Y108.407 E15.04942
G1 X165.777 Y108.547 E15.05415
G1 X165.742 Y108.791 E15.06234
G1 X165.271 Y109.434 E15.08885
G1 X164.829 Y111.016 E15.14349
G1 X163.59 Y112.733 E15.21391
G1 X163.625 Y113.275 E15.23198
G1 X163.672 Y113.325 E15.23426
G1 X163.472 Y113.499 E15.24307
G1 X162.592 Y113.499 E15.27234
G1 X160.45 Y114.655 E15.3533
G1 X159.588 Y114.91 E15.3832
G1 X159.297 Y114.864 E15.393
G1 X159.114 Y114.776 E15.39975
G1 X159.035 Y114.712 E15.40313
G1 X157.978 Y113.645 E15.45309
G1 X157.537 Y113.461 E15.46898
G1 X156.586 Y113.461 E15.50061
G1 X155.455 Y113.262 E15.5388
G1 X155.099 Y113.218 E15.55074
G1 X154.758 Y113.143 E15.56235
G1 X152.692 Y111.425 E15.65172
G1 X149.241 Y110.661 E15.76928
G1 X148.757 Y110.864 E15.78673
G1 X148.214 Y111.721 E15.82048
G1 X146.733 Y111.617 E15.86986
G1 X146.288 Y111.905 E15.88749
G1 X145.62 Y113.704 E15.95131
G1 X145.356 Y114.001 E15.96453
G1 X144.836 Y115.399 E16.01414
G1 X144.573 Y115.698 E16.02739
G1 X144.061 Y117.081 E16.07644
G1 X143.791 Y117.383 E16.08991
G1 X143.275 Y118.776 E16.13932
G1 X143.009 Y119.077 E16.15268
G1 X142.406 Y120.705 E16.21042
G1 X140.266 Y122.455 E16.30237
G1 X139.9 Y122.622 E16.31575
G1 X137.203 Y124.828 E16.43163
G1 X132.048 Y126.608 E16.61302
G1 X131.755 Y126.887 E16.62648
G1 X130.019 Y127.487 E16.68757
G1 X128.55 Y127.122 E16.73792
G1 X128.227 Y126.892 E16.7511
G1 X124.065 Y125.862 E16.89371
G1 X123.483 Y125.572 E16.91534
G1 X121.718 Y125.136 E16.9758
G1 X121.059 Y124.714 E17.00183
G1 X120.676 Y124.583 E17.01529
G1 X120.299 Y124.343 E17.03016
G1 X119.922 Y124.209 E17.04347
G1 X119.54 Y123.971 E17.05844
G1 X119.176 Y123.841 E17.07129
G1 X118.78 Y123.59 E17.08689
G1 X118.387 Y123.452 E17.10074
G1 X117.993 Y123.204 E17.11622
G1 X117.632 Y123.085 E17.12887
G1 X116.959 Y122.656 E17.15541
G1 X113.821 Y117.847 E17.3464
G1 X113.269 Y117.731 E17.36516
G1 X111.446 Y118.933 E17.43779
G1 X110.46 Y118.998 E17.47065
G1 X110.435 Y118.957 E17.47225
G1 X109.976 Y118.725 E17.48936
G1 X105.924 Y119.136 E17.62482
G1 X105.51 Y119.408 E17.64129
G1 X105.14 Y120.076 E17.66669
G1 X104.668 Y120.113 E17.68244
G1 X104.438 Y119.943 E17.69195
G1 X104.409 Y119.817 E17.69625
G1 X104.397 Y119.205 E17.71661
G1 X104.709 Y118.865 E17.73196
G1 X105.59 Y117.218 E17.79408
G1 X106.189 Y116.825 E17.81791
G1 X109.883 Y109.744 E18.08355
G1 X109.553 Y109.212 E18.10437
G1 X108.205 Y109.229 E18.14921
